!!!!SEGMENT: Ver3027-Italia_mia_benchel_parlar.krn
!!!id: Ver3027
!!!AGN: Madrigal
!!!SCT: Slim (1972)
!!!voices: 5
!!!COM: Philippe Verdelot
!!!OTL: Italia mia, bench'el parlar'
**kern	**kern	**kern	**kern	**kern
*part5	*part4	*part3	*part2	*part1
*staff5	*staff4	*staff3	*staff2	*staff1
*I"Bassus II	*I"Bassus I	*I"Tenor	*I"Altus	*I"Superius
*I'B. II	*I'B. I	*I'T	*I'A	*I'S
*clefF4	*clefF4	*clefGv2	*clefGv2	*clefG2
*k[b-]	*k[b-]	*k[b-]	*k[b-]	*k[b-]
*F:	*F:	*F:	*F:	*F:
*M2/1	*M2/1	*M2/1	*M2/1	*M2/1
*met(C|)	*met(C|)	*met(C|)	*met(C|)	*met(C|)
=1	=1	=1	=1	=1
0FF	0C	0F	0A	0f
=2	=2	=2	=2	=2
1BB-y	1D	2.F	1B-y	1f
.	.	4G	.	.
1AA	1C	2A	1c	1f
.	.	[2F	.	.
=3	=3	=3	=3	=3
0GG	2.D	2F]	0B-y	0g
.	.	4E	.	.
.	4C	4D	.	.
.	4BB-y	1E	.	.
.	4AA	.	.	.
.	2BB-y	.	.	.
=4	=4	=4	=4	=4
1FF	0C	1F	1A	1a
1r	.	2r	2r	2r
.	.	2c	2e	2g
=5	=5	=5	=5	=5
0r	0r	2c	2e	2g
.	.	2c	2e	2g
.	.	2F	4f	2a
.	.	.	4e	.
.	.	2A	4d	[2cc
.	.	.	4c	.
=6	=6	=6	=6	=6
1r	1r	1G	1d	4cc]
.	.	.	.	4bni
.	.	.	.	4bni
.	.	.	.	8aL
.	.	.	.	8bniJ
2r	1E	2C	[1c	[1cc
2C	.	2G	.	.
=7	=7	=7	=7	=7
2C	2E	2G	0c]	1cc]
2C	2E	2G	.	.
2FF	4F	2A	.	1r
.	4E	.	.	.
2AA	4D	[2c	.	.
.	4C	.	.	.
=8	=8	=8	=8	=8
1GG	1D	4c]	2r	0r
.	.	8BniL	.	.
.	.	8AJ	.	.
.	.	2Bni	2g	.
[1C	2C	[1c	[1g	.
.	2G	.	.	.
=9	=9	=9	=9	=9
1C]	1.c	1c]	2g]	1g
.	.	.	2f	.
1C	.	1r	2e	[1cc
.	2B-y	.	2d	.
=10	=10	=10	=10	=10
1.F	2A	1c	0c	2cc]
.	2G	.	.	2b-y
.	2.F	[1f	.	2a
2E	.	.	.	2g
.	4G	.	.	.
=11	=11	=11	=11	=11
2D	1A	2f]	1.d	1.f
2C	.	2e	.	.
[1BB-y	2.B-y	2d	.	.
.	.	2c	2e	8fL
.	.	.	.	8e
.	8AL	.	.	8d
.	8GJ	.	.	8cJ
=12	=12	=12	=12	=12
1BB-]	1F	2.B-y	1f	1d
.	.	4A	.	.
1C	1r	1G	1e	1c
=13	=13	=13	=13	=13
2r	2r	2r	2r	2r
2FF	2F	2A	2c	2f
2C	2E	2G	1c	2g
2FF	2F	2A	.	2f
=14	=14	=14	=14	=14
2C	2E	2G	2c	2g
2AA	2C	2F	1c	2a
1GG	1D	2.G	.	2b-y
.	.	.	2B-y	2b-y
.	.	4F	.	.
=15	=15	=15	=15	=15
1C	1E	4E	2c	2a
.	.	4C	.	.
.	.	2c	2e	2.g
2D	2F	2A	2d	.
.	.	.	.	4f
2BB-y	2D	2B-y	2d	[2f
=16	=16	=16	=16	=16
1C	1E	1G	1c	2f]
.	.	.	.	2e
[1FF	1C	[1F	[1A	[1f
=17	=17	=17	=17	=17
1FF]	1c	1F]	1A]	0f]
1F	2A	1r	2r	.
.	2A	.	[2f	.
=18	=18	=18	=18	=18
2D	2.d	0r	2f]	0r
2D	.	.	2d	.
.	4c	.	.	.
2.G	4B-y	.	2d	.
.	4A	.	.	.
.	[2G	.	[2g	.
4F	.	.	.	.
=19	=19	=19	=19	=19
4E	2G]	0r	4g]	0r
4D	.	.	4f	.
1C	2G	.	4e	.
.	.	.	4d	.
.	2A	.	2c	.
2C	2G	.	2c	.
=20	=20	=20	=20	=20
2D	2F	0r	2B-y	0r
2C	2E	.	2c	.
2D	1D	.	2F	.
[2F	.	.	2F	.
=21	=21	=21	=21	=21
4F]	1C	1c	1G	2r
8EL	.	.	.	.
8DJ	.	.	.	.
2E	.	.	.	1cc
1F	1r	2A	2F	.
.	.	2A	[2f	2a
=22	=22	=22	=22	=22
0r	0r	2.d	2f]	2a
.	.	.	2d	2.dd
.	.	4c	.	.
.	.	4B-y	2d	.
.	.	4A	.	4cc
.	.	2G	[2g	4b-y
.	.	.	.	4a
=23	=23	=23	=23	=23
2r	2r	1c	2g]	2g
2C	2G	.	2e	2cc
2F	2A	2c	2f	2cc
2C	2G	2c	2e	2cc
=24	=24	=24	=24	=24
2F	2A	2c	2f	2a
2A	2F	2c	2f	2.cc
1G	1B-y	1d	1g	.
.	.	.	.	8b-yL
.	.	.	.	8aJ
.	.	.	.	2b-y
=25	=25	=25	=25	=25
2C	2G	1c	2e	2cc
1C	2G	.	1e	2g
.	2G	1c	.	2g
2C	[2c	.	2e	2g
=26	=26	=26	=26	=26
1F	2c]	2c	1f	2a
.	2A	2c	.	2a
2D	2F	2d	2f	1b-y
2BB-y	[2G	2d	2d	.
=27	=27	=27	=27	=27
1C	2G]	1c	1e	1g
.	1C	.	.	.
1FF	.	1c	1f	1a
.	[2F	.	.	.
=28	=28	=28	=28	=28
1BB-y	2F]	1d	2r	1b-y
.	1G	.	2d	.
1C	.	1c	1e	1g
.	[2E	.	.	.
=29	=29	=29	=29	=29
1AA	2E]	1c	1e	1.a
.	1A	.	.	.
[1D	.	[1d	[1f	.
.	2A	.	.	2a
=30	=30	=30	=30	=30
2D]	2F	2d]	2f]	2a
2D	2F	2d	2f	2a
2GG	[1G	2B-y	2d	1b-y
2GG	.	2B-y	2d	.
=31	=31	=31	=31	=31
0C	1G]	2.c	0e	1g
.	.	8B-yL	.	.
.	.	8AJ	.	.
.	2.E	2G	.	[1cc
.	.	[2A	.	.
.	4D	.	.	.
=32	=32	=32	=32	=32
1AA	2E	4A]	1c	1cc]
.	.	4G	.	.
.	2.F	4F	.	.
.	.	4E	.	.
1BB-y	.	2D	1d	1f
.	4E	.	.	.
.	[2D	[2F	.	.
=33	=33	=33	=33	=33
0GG	4D]	2F]	0B-y	0g
.	4C	.	.	.
.	4BB-y	4E	.	.
.	4AA	4D	.	.
.	1BB-y	1E	.	.
=34	=34	=34	=34	=34
0FF	0C	1F	1A	0a
.	.	2r	2r	.
.	.	2F	2c	.
=35	=35	=35	=35	=35
0r	0r	2D	2d	2r
.	.	2G	2B-y	2g
.	.	2F	2d	2a
.	.	2D	2d	2f
=36	=36	=36	=36	=36
0r	1r	1F	2c	2a
.	.	.	2.f	2a
.	2r	1C	.	2.g
.	.	.	4e	.
.	2G	.	2e	.
.	.	.	.	4f
=37	=37	=37	=37	=37
0r	2A	0r	2c	2e
.	2F	.	2.d	2.f
.	2A	.	.	.
.	.	.	4c	4e
.	2A	.	[2c	4d
.	.	.	.	4c
=38	=38	=38	=38	=38
2r	2.G	1r	2c]	1d
2GG	.	.	2Bni	.
.	4F	.	.	.
2AA	2E	2r	2c	1c
2FF	[2F	[2c	[2A	.
=39	=39	=39	=39	=39
2AA	4F]	2c]	2A]	0r
.	4E	.	.	.
2AA	4D	4Bni	2F	.
.	4C	4A	.	.
1GG	1D	1Bni	1G	.
=40	=40	=40	=40	=40
1C	1C	1c	1G	1r
1C	1G	1c	1e	1g
=41	=41	=41	=41	=41
1FF	1F	1c	1f	1a
1FF	1F	1c	1f	1a
=42	=42	=42	=42	=42
1C	1G	2c	2e	2g
.	.	2c	2e	2g
1r	1r	2F	2.f	2.a
.	.	2A	.	.
.	.	.	4e	4g
=43	=43	=43	=43	=43
0r	1r	2B-y	2d	2f
.	.	2c	1c	2e
.	2r	2G	.	1d
.	2G	2G	2Bni	.
=44	=44	=44	=44	=44
2r	2.A	2r	1c	1c
2C	.	2c	.	.
.	4G	.	.	.
2.D	2F	2B-y	1r	1r
.	2E	2A	.	.
4C	.	.	.	.
=45	=45	=45	=45	=45
2BB-y	4D	2G	0r	1r
.	4C	.	.	.
2AA	1F	2F	.	.
1GG	.	1B-y	.	1g
.	2E	.	.	.
=46	=46	=46	=46	=46
1FF	1F	2A	1c	1.a
.	.	2F	.	.
1r	1r	[1c	[1e	.
.	.	.	.	2g
=47	=47	=47	=47	=47
0r	0r	2c]	2e]	2a
.	.	2B-y	2d	2b-y
.	.	2c	2e	1a
.	.	2d	2f	.
=48	=48	=48	=48	=48
0r	0r	1c	2.e	1cc
.	.	.	4f	.
.	.	2G	2g	2b-y
.	.	2A	[2f	[2a
=49	=49	=49	=49	=49
2r	1r	2B-y	2f]	2a]
2C	.	2.c	2e	2g
[1F	2r	.	1f	1a
.	.	4B-y	.	.
.	2F	4A	.	.
.	.	4G	.	.
=50	=50	=50	=50	=50
2F]	1.c	2F	0r	0r
2E	.	2G	.	.
2F	.	2A	.	.
2G	2B-y	2B-y	.	.
=51	=51	=51	=51	=51
1.F	2c	1.A	0r	0r
.	2d	.	.	.
.	1c	.	.	.
4E	.	4G	.	.
4D	.	4F	.	.
=52	=52	=52	=52	=52
2C	1c	2A	0r	0r
2C	.	2G	.	.
2.D	2B-y	2.F	.	.
.	[2A	.	.	.
4C	.	4E	.	.
=53	=53	=53	=53	=53
1BB-y	2A]	1D	1r	0r
.	2G	.	.	.
1AA	1A	2E	2r	.
.	.	2E	2c	.
=54	=54	=54	=54	=54
0r	0r	2D	2d	2r
.	.	2G	2B-y	2g
.	.	2F	2d	2a
.	.	2D	2d	2f
=55	=55	=55	=55	=55
0r	1r	1F	2c	2a
.	.	.	2.f	2a
.	2r	1C	.	2.g
.	.	.	4e	.
.	2G	.	2e	.
.	.	.	.	4f
=56	=56	=56	=56	=56
0r	2A	0r	2c	2e
.	2F	.	2.d	2.f
.	2A	.	.	.
.	.	.	4c	4e
.	2A	.	[2c	4d
.	.	.	.	4c
=57	=57	=57	=57	=57
2r	2.G	1r	2c]	1d
2GG	.	.	2Bni	.
.	4F	.	.	.
2AA	2E	2r	2c	1c
2FF	[2F	[2c	[2A	.
=58	=58	=58	=58	=58
2AA	4F]	2c]	2A]	1r
.	4E	.	.	.
2AA	4D	4Bni	2F	.
.	4C	4A	.	.
1GG	1D	1Bni	1G	2r
.	.	.	.	2d
=59	=59	=59	=59	=59
1C	1C	2.c	2r	2e
.	.	.	2G	2c
.	.	8B-yL	.	.
.	.	8AJ	.	.
1r	1r	2G	2B-y	2d
.	.	2B-y	2G	2e
=60	=60	=60	=60	=60
0r	2r	2c	2A	2f
.	2D	2d	2B-y	2f
.	2E	2G	1c	2e
.	2C	2A	.	[2a
=61	=61	=61	=61	=61
1r	2D	2B-y	1B-y	4a]
.	.	.	.	8gL
.	.	.	.	8fJ
.	2E	2G	.	2g
2r	2F	2c	1A	1a
2D	2F	2d	.	.
=62	=62	=62	=62	=62
2E	2E	2G	1c	0r
2C	2.A	2A	.	.
2D	.	1r	1B-y	.
.	8GL	.	.	.
.	8FJ	.	.	.
2E	2G	.	.	.
=63	=63	=63	=63	=63
1.F	0A	2r	1A	0r
.	.	2d	.	.
.	.	2c	1r	.
2D	.	[2f	.	.
=64	=64	=64	=64	=64
2F	2r	4f]	0r	0r
.	.	4e	.	.
2F	2F	1d	.	.
1E	2G	.	.	.
.	2G	2c#i	.	.
=65	=65	=65	=65	=65
2D	2A	2d	2r	2r
2D	2F	2A	2d	2f
2BB-y	1B-y	2B-y	2d	2.f
2BB-y	.	2d	2f	.
.	.	.	.	4g
=66	=66	=66	=66	=66
2F	1A	2c	2f	2a
2F	.	2c	2f	2f
1BB-y	2r	1d	1f	1b-y
.	2F	.	.	.
=67	=67	=67	=67	=67
1FF	2.F	1c	1f	1a
.	4G	.	.	.
2r	2A	2r	2r	2r
2BB-y	2F	2B-y	2d	2f
=68	=68	=68	=68	=68
2BB-y	1B-y	2B-y	2d	2.f
2BB-y	.	2d	2f	.
.	.	.	.	4g
2F	1A	2c	2f	2a
2F	.	2c	2f	2f
=69	=69	=69	=69	=69
1BB-y	1r	1d	1f	1b-y
1F	[1A	1c	1f	1a
=70	=70	=70	=70	=70
1D	1A]	1d	2r	2r
.	.	.	2f	2a
2D	1A	2d	2f	2a
2D	.	2d	2f	2a
=71	=71	=71	=71	=71
0F	1A	2.c	0f	0a
.	.	4B-y	.	.
.	[1c	2A	.	.
.	.	2F	.	.
=72	=72	=72	=72	=72
0C	2c]	1G	0e	0g
.	4B-y	.	.	.
.	4A	.	.	.
.	2G	1c	.	.
.	[2c	.	.	.
=73	=73	=73	=73	=73
1F	2c]	1A	1c	1f
.	1F	.	.	.
1BB-y	.	1B-y	1d	1f
.	2D	.	.	.
=74	=74	=74	=74	=74
1C	2.E	1G	2c	1e
.	.	.	1g	.
.	4F	.	.	.
1C	2G	1c	.	1e
.	[2A	.	2e	.
=75	=75	=75	=75	=75
0FF	4A]	0c	0f	0a
.	4G	.	.	.
.	4F	.	.	.
.	4E	.	.	.
.	1F	.	.	.
=76	=76	=76	=76	=76
0C	0G	1c	0e	1g
.	.	2r	.	2r
.	.	2e	.	2g
=77	=77	=77	=77	=77
0r	0r	2f	0r	2a
.	.	2e	.	2g
.	.	2f	.	2a
.	.	2d	.	2b-y
=78	=78	=78	=78	=78
2r	2r	1c	2r	1cc
2C	2G	.	2e	.
2F	2A	1c	2f	1cc
2C	2G	.	2e	.
=79	=79	=79	=79	=79
2F	2A	1r	2c	0r
2D	2B-y	.	2d	.
2C	2.c	2r	1e	.
2C	.	2G	.	.
.	4B-y	.	.	.
=80	=80	=80	=80	=80
1r	1A	2F	1c	1r
.	.	2F	.	.
1C	1G	2E	2r	1g
.	.	2c	2e	.
=81	=81	=81	=81	=81
2D	1r	2A	2d	2f
2BB-y	.	2B-y	2d	2f
2C	2r	2G	2c	2e
2C	2E	[2A	2e	2cc
=82	=82	=82	=82	=82
2.D	2F	4A]	2d	2a
.	.	4G	.	.
.	2D	1F	2d	2b-y
4BB-y	.	.	.	.
1C	2E	.	2c	2g
.	2c	2E	2e	[2a
=83	=83	=83	=83	=83
1D	2A	1F	2.d	4a]
.	.	.	.	4g
.	2B-y	.	.	1f
.	.	.	4B-y	.
1C	2G	2r	1c	.
.	[2A	2c	.	2e
=84	=84	=84	=84	=84
1FF	4A]	2A	1c	1f
.	4G	.	.	.
.	1F	2A	.	.
2r	.	2G	2r	2r
2C	2E	2c	2e	2g
=85	=85	=85	=85	=85
2D	1F	2A	2d	2f
2BB-y	.	2B-y	2d	2f
2C	2r	2G	2c	2e
2C	2E	[2A	2e	2cc
=86	=86	=86	=86	=86
2.D	2F	4A]	2d	2a
.	.	4G	.	.
.	2D	1F	2d	2b-y
4BB-y	.	.	.	.
1C	2E	.	2c	2g
.	2c	2E	2e	[2a
=87	=87	=87	=87	=87
1D	2A	1F	4d	4a]
.	.	.	4e	4g
.	2B-y	.	4f	1f
.	.	.	4d	.
1C	1c	1G	4e	.
.	.	.	4d	.
.	.	.	4c	2e
.	.	.	4B-y	.
=88	=88	=88	=88	=88
1FF	1c	[0Fl	1A	[0fl
2r	2r	.	2r	.
2FF	2C	.	2A	.
=89	=89	=89	=89	=89
2FF	2AA	0F_	2A	0f_
2BB-y	2BB-y	.	2F	.
2AA	2C	.	2A	.
2FF	2C	.	2A	.
=90	=90	=90	=90	=90
0BB-y	0D	0F_	0B-y	0f_
=91	=91	=91	=91	=91
00FFl	00Cl	00F]	00Al	00f]
==	==	==	==	==
*-	*-	*-	*-	*-
!!!system-decoration: [*]
!!!RDF**kern: i = editorial accidental
!!!RDF**kern: l = terminal long
!!!ENC: Benjamin Ory
!!!END: 2021/4/18
!!!EED: Benjamin Ory
!!!EEV: 2021/04/29
!!!YEC: Copyright 2021 Benjamin Ory, All Rights Reserved
!!!ONB: Translated from MusicXML on 2021/04/29
